X:112
T:Gloucester Hornpipe
R:hp 32
C:Trad arr. OSB
S:Swan Upmanship
Z:PJHeadford 2011
M:4/4
L:1/8
Q:2/4=80
K:G
|:(3DEF|G2g2 g2dB|cBcd ef (3gfe|dBGB dBGB|cAFA cAFD|
G2g2 g2dB|cBcd ef (3gfe|dBGB ecAF|G2B2 G2:|]
|:A2|B2B2 BcdB|cBcd ef (3gfe|dBGB edcB|ABcA GFED|
B2B2 BcdB|cBcd ef (3gfe|dBGB ecAF|G2B2 G2:|]

